!!!!SEGMENT:Chunomai.krn
!!!OTL:中の舞
!!!OPR:Eiga Banso Kyokusyu,jidai-geki,kouhen
!!!YOY:1928
!!!ONB:Yusan,Hanami
**kern
*clefG2
*k[]
*C:
*M2/4
=1
4ee
4ee
=2
4b
8eeL
8bJ
=3
4d
4d
=4
4e
8dL
8eJ
=5
8fL
8e
8d
8eJ
=6
8aL
8aJ
8bL
8aJ
=7
8BL
8aa
8ff
8ffJ
=8
8ffL
8eeJ
4r
=9
2gg
=10
2ff#X
=11
8.ff#XL
16bbJk
4bb
=12
8bbL
8ggJ
8ff#XL
8eeJ
=13
8ff#XL
8eeJ
8ccL
8bJ
=14
8aL
8bJ
8r
8ee
=15
4b
4e
=16
4e
4r
==
*-
!!!ENC: Yukiko Yoden
!!!END: 2023/06/11
